X:1
T:Comfort (Psalter), 77.77 D
T:Comfort (Psalter), 77.77 D
T:English Melody
T:Public Domain Courtesy of the Cyber Hymnal™
C:English Melody
Z:Public Domain
Z:Courtesy of the Cyber Hymnal™
%%score ( 1 2 ) ( 3 4 )
L:1/8
Q:1/4=110
M:4/4
K:E
V:1 treble 
V:2 treble 
V:3 bass 
V:4 bass 
V:1
 [EG]3 [EG] [EG]2 [DF]2 | [EG]3 [FA] ([^^F^A]2 [GB]2) | [DF]3 [DF] [DF]2 [B,E]2 | %3
 [DF]3 [DG] [B,E]4 | [EG]3 [EG] [EG]2 [DF]2 | [EG]3 [FA] ([Ac]2 [GB]2) | [DF]3 [DF] [DF]2 [B,E]2 | %7
 ([DF] [CA]2) [DG] E4 | [Ge]3 [Ge] [Ge]2 [GB]2 | [Ac]2 [Ae]2 [GB]4 | [EG]3 [GB] [EG]2 [B,E]2 | %11
 [DF]2 [DG]2 [B,E]4 | [Ge]3 [Ge] [Ge]2 [GB]2 | [Ac]2 [Ae]2 [GB]4 | [EG]2 [EB]2 [EG]2 [B,E]2 | %15
 [DF]2 ([CA][DG]) [B,E]4 |] %16
V:2
 x8 | x8 | x8 | x8 | x8 | x8 | x8 | x4 E4 | x8 | x8 | x8 | x8 | x8 | x8 | x8 | x8 |] %16
V:3
 [E,B,]3 [E,B,] [E,B,]2 [B,,B,]2 | [E,B,]3 [E,B,] [E,E]4 | [B,,A,]3 [B,,A,] [B,,A,]2 [B,,G,]2 | %3
 [B,,A,]3 [B,,B,] [E,G,]4 | [E,B,]3 [E,B,] [E,B,]2 [B,,B,]2 | [E,B,]3 [E,B,] [E,E]4 | %6
 [B,,A,]3 [B,,A,] [B,,A,]2 [B,,G,]2 | [B,,A,]3 [B,,B,] [E,G,]4 | [E,B,]3 [E,B,] [E,B,]2 [E,E]2 | %9
 [E,E]2 [E,C]2 [E,E]4 | [B,,E]3 [B,,E] [B,,B,]2 [B,,G,]2 | [B,,A,]2 [B,,B,]2 [E,G,]4 | %12
 [E,B,]3 [E,B,] [E,B,]2 [E,E]2 | [A,E]2 [A,C]2 [E,E]4 | [B,,B,]2 [B,,G,]2 [B,,B,]2 [B,,G,]2 | %15
 [B,,A,]2 (A,B,) [E,G,]4 |] %16
V:4
 x8 | x8 | x8 | x8 | x8 | x8 | x8 | x8 | x8 | x8 | x8 | x8 | x8 | x8 | x8 | x2 B,,2 x4 |] %16

